Newaita-dark/apps/32/com.github.bcedu.shutdownscheduler.svg

<svg height="32pt" viewBox="0 0 32 32" width="32pt" xmlns="http://www.w3.org/2000/svg" xmlns:xlink="http://www.w3.org/1999/xlink"><linearGradient id="a"><stop offset="0" stop-opacity=".313725"/><stop offset=".222222" stop-opacity=".27451"/><stop offset="1" stop-opacity="0"/></linearGradient><radialGradient id="b" cx="450.90894" cy="189.57936" gradientTransform="matrix(.00000017 -.0781325 -.140638 -.0000001 44.523152 63.595332)" gradientUnits="userSpaceOnUse" r="21.166656" xlink:href="#a"/><radialGradient id="c" cx="450.90894" cy="189.57936" gradientTransform="matrix(-.00000017 .0781325 .140638 .0000001 -12.770121 -7.527481)" gradientUnits="userSpaceOnUse" r="21.166656" xlink:href="#a"/><radialGradient id="d" cx="450.90894" cy="189.57936" gradientTransform="matrix(-.00000017 -.0781325 .140638 -.0000001 -12.770121 63.595332)" gradientUnits="userSpaceOnUse" r="21.166656" xlink:href="#a"/><radialGradient id="e" cx="450.90894" cy="189.57936" gradientTransform="matrix(.00000017 .0781325 -.140638 .0000001 44.52315 -7.527482)" gradientUnits="userSpaceOnUse" r="21.166656" xlink:href="#a"/><linearGradient id="f" gradientTransform="matrix(.0133601 0 0 .062506 12.465386 13.438784)" gradientUnits="userSpaceOnUse" x1="255.32306" x2="255.32304" y1="233.5" y2="254.66666"><stop offset="0" stop-opacity=".27451"/><stop offset="1" stop-opacity="0"/></linearGradient><linearGradient id="g" gradientUnits="userSpaceOnUse" x1="254" x2="254" y1="-168.66667" y2="233.5"><stop offset="0" stop-color="#616161"/><stop offset="1" stop-color="#424242"/></linearGradient><linearGradient id="h" gradientUnits="userSpaceOnUse" x1="15.87648" x2="15.87648" y1="28.0338647916" y2="2.89610363394"><stop offset="0" stop-color="#bdbdbd"/><stop offset="1" stop-color="#e0e0e0"/></linearGradient><path d="m18.191406 28.035156h2.648438v-1.324218h-2.648438zm0 0" fill="url(#b)"/><path d="m13.5625 28.035156h-2.648438v1.320313h2.648438zm0 0" fill="url(#c)"/><path d="m13.5625 28.035156h-2.648438v-1.324218h2.648438zm0 0" fill="url(#d)"/><path d="m18.191406 28.035156h2.648438v1.320313h-2.648438zm0 0" fill="url(#e)"/><path d="m13.5625 27.703125h4.628906v1.652344h-4.628906zm0 0" fill="url(#f)"/><path d="m253.975747-168.691922c111.051895 0 201.105795 90.0539 201.105795 201.105795s-90.0539 201.105796-201.105795 201.105796c-111.051896 0-201.043302-90.053901-201.043302-201.105796s89.991406-201.105795 201.043302-201.105795zm0 0" fill="url(#g)" stroke="#333" stroke-linecap="round" stroke-width="3" transform="matrix(.062506 0 0 .062506 0 13.438783)"/><path d="m15.875 28.035156c-6.960938 0-12.566406-5.605468-12.566406-12.570312 0-.039063 0-.082032 0-.121094.066406 6.902344 5.644531 12.445312 12.566406 12.445312s12.503906-5.542968 12.570312-12.445312v.121094c0 6.964844-5.605468 12.570312-12.570312 12.570312zm0 0" fill-opacity=".196078"/><path d="m15.875 2.894531c-6.960938 0-12.566406 5.605469-12.566406 12.570313v.125c.066406-6.90625 5.644531-12.449219 12.566406-12.449219s12.503906 5.542969 12.570312 12.449219c0-.042969 0-.082032 0-.125 0-6.964844-5.605468-12.570313-12.570312-12.570313zm0 0" fill="#fff" fill-opacity=".392157"/><path d="m15.875 2.800781c-7.011719 0-12.660156 5.652344-12.660156 12.664063 0 7.011718 5.648437 12.664062 12.660156 12.664062 7.015625 0 12.664062-5.652344 12.664062-12.664062 0-7.011719-5.648437-12.664063-12.664062-12.664063zm0 .1875c6.914062 0 12.476562 5.5625 12.476562 12.476563 0 6.914062-5.5625 12.476562-12.476562 12.476562-6.910156 0-12.472656-5.5625-12.472656-12.476562 0-6.914063 5.5625-12.476563 12.472656-12.476563zm0 0" fill="#212121"/><path d="m15.867188 8.179688c-.363282.003906-.65625.304687-.652344.671874v6.613282c0 .363281.296875.660156.660156.660156h4.632812c.238282.003906.460938-.121094.578126-.328125.121093-.203125.121093-.460937 0-.664063-.117188-.207031-.339844-.332031-.578126-.328124h-3.972656v-5.953126c.003906-.179687-.066406-.351562-.191406-.476562-.125-.128906-.296875-.199219-.476562-.195312zm3.796874.417968c-.292968.007813-.546874.210938-.617187.496094-.074219.28125.046875.582031.300781.730469 1.890625 1.164062 3.144532 3.242187 3.144532 5.640625 0 3.675781-2.9375 6.617187-6.617188 6.617187-3.675781 0-6.613281-2.941406-6.613281-6.617187 0-2.398438 1.253906-4.476563 3.144531-5.640625.253906-.152344.375-.453125.296875-.742188-.078125-.285156-.335937-.484375-.632813-.484375-.125 0-.25.035156-.355468.101563-2.269532 1.394531-3.777344 3.90625-3.777344 6.765625 0 4.386718 3.554688 7.9375 7.9375 7.9375 4.386719 0 7.9375-3.550782 7.9375-7.9375 0-2.859375-1.503906-5.371094-3.773438-6.765625-.113281-.070313-.242187-.105469-.375-.101563zm0 0" fill="url(#h)"/><path d="m15.867188 8.179688c-.363282.003906-.65625.304687-.652344.671874v.417969c-.003906-.367187.289062-.664062.652344-.671875.179687 0 .351562.066406.476562.195313.125.125.195312.296875.191406.476562v-.417969c.003906-.179687-.066406-.351562-.191406-.476562-.125-.128906-.296875-.199219-.476562-.195312zm3.796874.417968c-.210937.007813-.402343.109375-.519531.28125-.121093.171875-.152343.390625-.085937.585938.089844-.261719.328125-.441406.605468-.449219.132813-.003906.261719.03125.375.101563 2.214844 1.363281 3.703126 3.785156 3.773438 6.5625 0-.070313 0-.144532 0-.214844 0-2.859375-1.503906-5.371094-3.773438-6.765625-.113281-.070313-.242187-.105469-.375-.101563zm-7.59375 0c-.125 0-.25.035156-.355468.101563-2.269532 1.394531-3.777344 3.90625-3.777344 6.765625 0 .070312.003906.144531.003906.214844.070313-2.777344 1.558594-5.199219 3.773438-6.5625.105468-.066407.230468-.101563.355468-.101563.28125 0 .535157.183594.621094.453125.070313-.203125.035156-.421875-.085937-.597656-.125-.171875-.324219-.273438-.535157-.273438zm4.464844 6.207032v.417968h3.972656c.285157-.003906.542969.179688.636719.449219.066407-.203125.03125-.425781-.09375-.597656-.128906-.171875-.328125-.273438-.542969-.269531zm-7.273437.871093v.207031c0 3.675782 2.9375 6.617188 6.613281 6.617188 3.679688 0 6.617188-2.941406 6.617188-6.617188 0-.070312 0-.140624-.003907-.207031-.109375 3.578125-3.003906 6.40625-6.613281 6.40625-3.605469 0-6.503906-2.828125-6.613281-6.40625zm0 0" fill="#fff"/><path d="m19.113281 9.585938c-.179687.3125-.078125.714843.234375.898437 1.800782 1.109375 3.027344 3.050781 3.136719 5.308594.003906-.109375.007813-.21875.007813-.328125 0-2.398438-1.253907-4.480469-3.144532-5.640625-.097656-.058594-.175781-.140625-.234375-.238281zm-6.476562 0c-.054688.097656-.136719.179687-.230469.238281-1.890625 1.160156-3.144531 3.242187-3.144531 5.640625 0 .109375 0 .21875.007812.328125.109375-2.257813 1.332031-4.199219 3.136719-5.308594.308594-.183594.414062-.585937.230469-.898437zm2.578125 5.878906v.660156c0 .363281.296875.660156.660156.660156h4.632812c.238282.003906.457032-.121094.578126-.324218.121093-.207032.121093-.460938.003906-.667969-.121094.207031-.34375.335937-.582032.332031h-4.632812c-.363281 0-.660156-.296875-.660156-.660156zm-7.269532.332031c-.003906.109375-.007812.21875-.007812.328125 0 4.386719 3.554688 7.9375 7.9375 7.9375 4.386719 0 7.9375-3.550781 7.9375-7.9375 0-.109375 0-.21875-.003906-.328125-.175782 4.230469-3.65625 7.605469-7.933594 7.605469-4.273438 0-7.753906-3.375-7.929688-7.605469zm0 0" fill-opacity=".235294"/><path d="m959.43595 494.598444c-21.966407.236198-39.681251 18.423437-39.445053 40.626042v399.883078c0 21.966406 17.951042 39.917448 39.917448 39.917448h280.130733c14.408073.236198 27.871355-7.322135 34.957292-19.840625 7.322136-12.282292 7.322136-27.871354 0-40.153646-7.085937-12.51849-20.549219-20.076823-34.957292-19.840626h-240.213284v-359.965629c.236198-10.865104-4.015365-21.257813-11.573698-28.816146-7.558334-7.794532-17.951042-12.046094-28.816146-11.809896zm229.584377 25.273177c-17.714843.472396-33.067708 12.754688-37.319271 29.997136-4.48776 17.00625 2.834375 35.19349 18.18724 44.169011 114.319793 70.38698 190.139325 196.044273 190.139325 341.069796 0 222.262242-177.620835 400.119276-400.119276 400.119276-222.262242 0-399.883078-177.857034-399.883078-400.119276 0-145.025523 75.819533-270.682816 190.139326-341.069796 15.352865-9.211719 22.675-27.398959 17.951042-44.877605-4.723959-17.242448-20.313021-29.288542-38.264063-29.288542-7.558334 0-15.116667 2.125781-21.494011 6.141146-137.230991 84.322657-228.403388 236.19792-228.403388 409.094797 0 265.250264 214.940107 479.954173 479.954172 479.954173 265.250264 0 479.954173-214.703909 479.954173-479.954173 0-172.896877-90.936199-324.77214-228.16719-409.094797-6.84974-4.251563-14.644271-6.377344-22.675001-6.141146zm0 0" fill="none" stroke="#212121" stroke-linecap="round" stroke-linejoin="round" stroke-width="11.338583" transform="scale(.016538)"/></svg>

<?xml version="1.0" encoding="UTF-8"?>
<svg xmlns="http://www.w3.org/2000/svg" xmlns:xlink="http://www.w3.org/1999/xlink" width="32pt" height="32pt" viewBox="0 0 32 32" version="1.1">
<defs>
<radialGradient id="radial0" gradientUnits="userSpaceOnUse" cx="450.90894" cy="189.57936" fx="450.90894" fy="189.57936" r="21.166656" gradientTransform="matrix(0.00000017417,-0.0781325,-0.140638,-0.000000101539,44.523152,63.595332)">
<stop offset="0" style="stop-color:rgb(0%,0%,0%);stop-opacity:0.313725;"/>
<stop offset="0.222222" style="stop-color:rgb(0%,0%,0%);stop-opacity:0.27451;"/>
<stop offset="1" style="stop-color:rgb(0%,0%,0%);stop-opacity:0;"/>
</radialGradient>
<radialGradient id="radial1" gradientUnits="userSpaceOnUse" cx="450.90894" cy="189.57936" fx="450.90894" fy="189.57936" r="21.166656" gradientTransform="matrix(-0.00000017417,0.0781325,0.140638,0.000000101539,-12.770121,-7.527481)">
<stop offset="0" style="stop-color:rgb(0%,0%,0%);stop-opacity:0.313725;"/>
<stop offset="0.222222" style="stop-color:rgb(0%,0%,0%);stop-opacity:0.27451;"/>
<stop offset="1" style="stop-color:rgb(0%,0%,0%);stop-opacity:0;"/>
</radialGradient>
<radialGradient id="radial2" gradientUnits="userSpaceOnUse" cx="450.90894" cy="189.57936" fx="450.90894" fy="189.57936" r="21.166656" gradientTransform="matrix(-0.00000017417,-0.0781325,0.140638,-0.000000101539,-12.770121,63.595332)">
<stop offset="0" style="stop-color:rgb(0%,0%,0%);stop-opacity:0.313725;"/>
<stop offset="0.222222" style="stop-color:rgb(0%,0%,0%);stop-opacity:0.27451;"/>
<stop offset="1" style="stop-color:rgb(0%,0%,0%);stop-opacity:0;"/>
</radialGradient>
<radialGradient id="radial3" gradientUnits="userSpaceOnUse" cx="450.90894" cy="189.57936" fx="450.90894" fy="189.57936" r="21.166656" gradientTransform="matrix(0.00000017417,0.0781325,-0.140638,0.000000101539,44.52315,-7.527482)">
<stop offset="0" style="stop-color:rgb(0%,0%,0%);stop-opacity:0.313725;"/>
<stop offset="0.222222" style="stop-color:rgb(0%,0%,0%);stop-opacity:0.27451;"/>
<stop offset="1" style="stop-color:rgb(0%,0%,0%);stop-opacity:0;"/>
</radialGradient>
<linearGradient id="linear0" gradientUnits="userSpaceOnUse" x1="255.32306" y1="233.5" x2="255.32304" y2="254.66666" gradientTransform="matrix(0.0133601,0,0,0.062506,12.465386,13.438784)">
<stop offset="0" style="stop-color:rgb(0%,0%,0%);stop-opacity:0.27451;"/>
<stop offset="1" style="stop-color:rgb(0%,0%,0%);stop-opacity:0;"/>
</linearGradient>
<linearGradient id="linear1" gradientUnits="userSpaceOnUse" x1="254" y1="-168.66667" x2="254" y2="233.5" >
<stop offset="0" style="stop-color:rgb(38.039216%,38.039216%,38.039216%);stop-opacity:1;"/>
<stop offset="1" style="stop-color:rgb(25.882353%,25.882353%,25.882353%);stop-opacity:1;"/>
</linearGradient>
<linearGradient id="linear2" gradientUnits="userSpaceOnUse" x1="960" y1="1695.1182" x2="960" y2="175.11813" gradientTransform="matrix(0.016538,0,0,0.016538,0,0)">
<stop offset="0" style="stop-color:rgb(74.117647%,74.117647%,74.117647%);stop-opacity:1;"/>
<stop offset="1" style="stop-color:rgb(87.843137%,87.843137%,87.843137%);stop-opacity:1;"/>
</linearGradient>
</defs>
<g id="surface1">
<path style=" stroke:none;fill-rule:nonzero;fill:url(#radial0);" d="M 18.191406 28.035156 L 20.839844 28.035156 L 20.839844 26.710938 L 18.191406 26.710938 Z M 18.191406 28.035156 "/>
<path style=" stroke:none;fill-rule:nonzero;fill:url(#radial1);" d="M 13.5625 28.035156 L 10.914062 28.035156 L 10.914062 29.355469 L 13.5625 29.355469 Z M 13.5625 28.035156 "/>
<path style=" stroke:none;fill-rule:nonzero;fill:url(#radial2);" d="M 13.5625 28.035156 L 10.914062 28.035156 L 10.914062 26.710938 L 13.5625 26.710938 Z M 13.5625 28.035156 "/>
<path style=" stroke:none;fill-rule:nonzero;fill:url(#radial3);" d="M 18.191406 28.035156 L 20.839844 28.035156 L 20.839844 29.355469 L 18.191406 29.355469 Z M 18.191406 28.035156 "/>
<path style=" stroke:none;fill-rule:nonzero;fill:url(#linear0);" d="M 13.5625 27.703125 L 18.191406 27.703125 L 18.191406 29.355469 L 13.5625 29.355469 Z M 13.5625 27.703125 "/>
<path style="fill-rule:nonzero;fill:url(#linear1);stroke-width:3;stroke-linecap:round;stroke-linejoin:miter;stroke:rgb(20%,20%,20%);stroke-opacity:1;stroke-miterlimit:4;" d="M 253.975747 -168.691922 C 365.027642 -168.691922 455.081542 -78.638022 455.081542 32.413873 C 455.081542 143.465768 365.027642 233.519669 253.975747 233.519669 C 142.923851 233.519669 52.932445 143.465768 52.932445 32.413873 C 52.932445 -78.638022 142.923851 -168.691922 253.975747 -168.691922 Z M 253.975747 -168.691922 " transform="matrix(0.062506,0,0,0.062506,0,13.438783)"/>
<path style=" stroke:none;fill-rule:nonzero;fill:rgb(0%,0%,0%);fill-opacity:0.196078;" d="M 15.875 28.035156 C 8.914062 28.035156 3.308594 22.429688 3.308594 15.464844 C 3.308594 15.425781 3.308594 15.382812 3.308594 15.34375 C 3.375 22.246094 8.953125 27.789062 15.875 27.789062 C 22.796875 27.789062 28.378906 22.246094 28.445312 15.34375 C 28.445312 15.382812 28.445312 15.425781 28.445312 15.464844 C 28.445312 22.429688 22.839844 28.035156 15.875 28.035156 Z M 15.875 28.035156 "/>
<path style=" stroke:none;fill-rule:nonzero;fill:rgb(100%,100%,100%);fill-opacity:0.392157;" d="M 15.875 2.894531 C 8.914062 2.894531 3.308594 8.5 3.308594 15.464844 C 3.308594 15.507812 3.308594 15.546875 3.308594 15.589844 C 3.375 8.683594 8.953125 3.140625 15.875 3.140625 C 22.796875 3.140625 28.378906 8.683594 28.445312 15.589844 C 28.445312 15.546875 28.445312 15.507812 28.445312 15.464844 C 28.445312 8.5 22.839844 2.894531 15.875 2.894531 Z M 15.875 2.894531 "/>
<path style=" stroke:none;fill-rule:nonzero;fill:rgb(12.941176%,12.941176%,12.941176%);fill-opacity:1;" d="M 15.875 2.800781 C 8.863281 2.800781 3.214844 8.453125 3.214844 15.464844 C 3.214844 22.476562 8.863281 28.128906 15.875 28.128906 C 22.890625 28.128906 28.539062 22.476562 28.539062 15.464844 C 28.539062 8.453125 22.890625 2.800781 15.875 2.800781 Z M 15.875 2.988281 C 22.789062 2.988281 28.351562 8.550781 28.351562 15.464844 C 28.351562 22.378906 22.789062 27.941406 15.875 27.941406 C 8.964844 27.941406 3.402344 22.378906 3.402344 15.464844 C 3.402344 8.550781 8.964844 2.988281 15.875 2.988281 Z M 15.875 2.988281 "/>
<path style=" stroke:none;fill-rule:nonzero;fill:url(#linear2);" d="M 15.867188 8.179688 C 15.503906 8.183594 15.210938 8.484375 15.214844 8.851562 L 15.214844 15.464844 C 15.214844 15.828125 15.511719 16.125 15.875 16.125 L 20.507812 16.125 C 20.746094 16.128906 20.96875 16.003906 21.085938 15.796875 C 21.207031 15.59375 21.207031 15.335938 21.085938 15.132812 C 20.96875 14.925781 20.746094 14.800781 20.507812 14.804688 L 16.535156 14.804688 L 16.535156 8.851562 C 16.539062 8.671875 16.46875 8.5 16.34375 8.375 C 16.21875 8.246094 16.046875 8.175781 15.867188 8.179688 Z M 19.664062 8.597656 C 19.371094 8.605469 19.117188 8.808594 19.046875 9.09375 C 18.972656 9.375 19.09375 9.675781 19.347656 9.824219 C 21.238281 10.988281 22.492188 13.066406 22.492188 15.464844 C 22.492188 19.140625 19.554688 22.082031 15.875 22.082031 C 12.199219 22.082031 9.261719 19.140625 9.261719 15.464844 C 9.261719 13.066406 10.515625 10.988281 12.40625 9.824219 C 12.660156 9.671875 12.78125 9.371094 12.703125 9.082031 C 12.625 8.796875 12.367188 8.597656 12.070312 8.597656 C 11.945312 8.597656 11.820312 8.632812 11.714844 8.699219 C 9.445312 10.09375 7.9375 12.605469 7.9375 15.464844 C 7.9375 19.851562 11.492188 23.402344 15.875 23.402344 C 20.261719 23.402344 23.8125 19.851562 23.8125 15.464844 C 23.8125 12.605469 22.308594 10.09375 20.039062 8.699219 C 19.925781 8.628906 19.796875 8.59375 19.664062 8.597656 Z M 19.664062 8.597656 "/>
<path style=" stroke:none;fill-rule:nonzero;fill:rgb(100%,100%,100%);fill-opacity:1;" d="M 15.867188 8.179688 C 15.503906 8.183594 15.210938 8.484375 15.214844 8.851562 L 15.214844 9.269531 C 15.210938 8.902344 15.503906 8.605469 15.867188 8.597656 C 16.046875 8.597656 16.21875 8.664062 16.34375 8.792969 C 16.46875 8.917969 16.539062 9.089844 16.535156 9.269531 L 16.535156 8.851562 C 16.539062 8.671875 16.46875 8.5 16.34375 8.375 C 16.21875 8.246094 16.046875 8.175781 15.867188 8.179688 Z M 19.664062 8.597656 C 19.453125 8.605469 19.261719 8.707031 19.144531 8.878906 C 19.023438 9.050781 18.992188 9.269531 19.058594 9.464844 C 19.148438 9.203125 19.386719 9.023438 19.664062 9.015625 C 19.796875 9.011719 19.925781 9.046875 20.039062 9.117188 C 22.253906 10.480469 23.742188 12.902344 23.8125 15.679688 C 23.8125 15.609375 23.8125 15.535156 23.8125 15.464844 C 23.8125 12.605469 22.308594 10.09375 20.039062 8.699219 C 19.925781 8.628906 19.796875 8.59375 19.664062 8.597656 Z M 12.070312 8.597656 C 11.945312 8.597656 11.820312 8.632812 11.714844 8.699219 C 9.445312 10.09375 7.9375 12.605469 7.9375 15.464844 C 7.9375 15.535156 7.941406 15.609375 7.941406 15.679688 C 8.011719 12.902344 9.5 10.480469 11.714844 9.117188 C 11.820312 9.050781 11.945312 9.015625 12.070312 9.015625 C 12.351562 9.015625 12.605469 9.199219 12.691406 9.46875 C 12.761719 9.265625 12.726562 9.046875 12.605469 8.871094 C 12.480469 8.699219 12.28125 8.597656 12.070312 8.597656 Z M 16.535156 14.804688 L 16.535156 15.222656 L 20.507812 15.222656 C 20.792969 15.21875 21.050781 15.402344 21.144531 15.671875 C 21.210938 15.46875 21.175781 15.246094 21.050781 15.074219 C 20.921875 14.902344 20.722656 14.800781 20.507812 14.804688 Z M 9.261719 15.675781 C 9.261719 15.742188 9.261719 15.8125 9.261719 15.882812 C 9.261719 19.558594 12.199219 22.5 15.875 22.5 C 19.554688 22.5 22.492188 19.558594 22.492188 15.882812 C 22.492188 15.8125 22.492188 15.742188 22.488281 15.675781 C 22.378906 19.253906 19.484375 22.082031 15.875 22.082031 C 12.269531 22.082031 9.371094 19.253906 9.261719 15.675781 Z M 9.261719 15.675781 "/>
<path style=" stroke:none;fill-rule:nonzero;fill:rgb(0%,0%,0%);fill-opacity:0.235294;" d="M 19.113281 9.585938 C 18.933594 9.898438 19.035156 10.300781 19.347656 10.484375 C 21.148438 11.59375 22.375 13.535156 22.484375 15.792969 C 22.488281 15.683594 22.492188 15.574219 22.492188 15.464844 C 22.492188 13.066406 21.238281 10.984375 19.347656 9.824219 C 19.25 9.765625 19.171875 9.683594 19.113281 9.585938 Z M 12.636719 9.585938 C 12.582031 9.683594 12.5 9.765625 12.40625 9.824219 C 10.515625 10.984375 9.261719 13.066406 9.261719 15.464844 C 9.261719 15.574219 9.261719 15.683594 9.269531 15.792969 C 9.378906 13.535156 10.601562 11.59375 12.40625 10.484375 C 12.714844 10.300781 12.820312 9.898438 12.636719 9.585938 Z M 15.214844 15.464844 L 15.214844 16.125 C 15.214844 16.488281 15.511719 16.785156 15.875 16.785156 L 20.507812 16.785156 C 20.746094 16.789062 20.964844 16.664062 21.085938 16.460938 C 21.207031 16.253906 21.207031 16 21.089844 15.792969 C 20.96875 16 20.746094 16.128906 20.507812 16.125 L 15.875 16.125 C 15.511719 16.125 15.214844 15.828125 15.214844 15.464844 Z M 7.945312 15.796875 C 7.941406 15.90625 7.9375 16.015625 7.9375 16.125 C 7.9375 20.511719 11.492188 24.0625 15.875 24.0625 C 20.261719 24.0625 23.8125 20.511719 23.8125 16.125 C 23.8125 16.015625 23.8125 15.90625 23.808594 15.796875 C 23.632812 20.027344 20.152344 23.402344 15.875 23.402344 C 11.601562 23.402344 8.121094 20.027344 7.945312 15.796875 Z M 7.945312 15.796875 "/>
<path style="fill:none;stroke-width:11.338583;stroke-linecap:round;stroke-linejoin:round;stroke:rgb(12.941176%,12.941176%,12.941176%);stroke-opacity:1;stroke-miterlimit:4;" d="M 959.43595 494.598444 C 937.469543 494.834642 919.754699 513.021881 919.990897 535.224486 L 919.990897 935.107564 C 919.990897 957.07397 937.941939 975.025012 959.908345 975.025012 L 1240.039078 975.025012 C 1254.447151 975.26121 1267.910433 967.702877 1274.99637 955.184387 C 1282.318506 942.902095 1282.318506 927.313033 1274.99637 915.030741 C 1267.910433 902.512251 1254.447151 894.953918 1240.039078 895.190115 L 999.825794 895.190115 L 999.825794 535.224486 C 1000.061992 524.359382 995.810429 513.966673 988.252096 506.40834 C 980.693762 498.613808 970.301054 494.362246 959.43595 494.598444 Z M 1189.020327 519.871621 C 1171.305484 520.344017 1155.952619 532.626309 1151.701056 549.868757 C 1147.213296 566.875007 1154.535431 585.062247 1169.888296 594.037768 C 1284.208089 664.424748 1360.027621 790.082041 1360.027621 935.107564 C 1360.027621 1157.369806 1182.406786 1335.22684 959.908345 1335.22684 C 737.646103 1335.22684 560.025267 1157.369806 560.025267 935.107564 C 560.025267 790.082041 635.8448 664.424748 750.164593 594.037768 C 765.517458 584.826049 772.839593 566.638809 768.115635 549.160163 C 763.391676 531.917715 747.802614 519.871621 729.851572 519.871621 C 722.293238 519.871621 714.734905 521.997402 708.357561 526.012767 C 571.12657 610.335424 479.954173 762.210687 479.954173 935.107564 C 479.954173 1200.357828 694.89428 1415.061737 959.908345 1415.061737 C 1225.158609 1415.061737 1439.862518 1200.357828 1439.862518 935.107564 C 1439.862518 762.210687 1348.926319 610.335424 1211.695328 526.012767 C 1204.845588 521.761204 1197.051057 519.635423 1189.020327 519.871621 Z M 1189.020327 519.871621 " transform="matrix(0.016538,0,0,0.016538,0,0)"/>
</g>
</svg>
